X:159
T:Walkalong, Miss Susiana Brown
M:C|
L:1/8
Q:1/4=115
K:D
F|\
AGFA GF3|A3G F4|A3G F3A|BA2d FED2|D3D D2F2|EEA,A, D3||
